app/images/post-bg.svg

<svg width="471" height="1030" viewBox="0 0 471 1030" fill="none" xmlns="http://www.w3.org/2000/svg">
<path opacity="0.5" d="M12.3585 414.716C14.2773 402.791 45.193 426.537 60.411 439.901C52.525 450.794 33.9556 471.156 22.7654 465.462C11.5752 459.768 21.4052 447.909 27.719 442.692C21.7994 438.336 10.4398 426.642 12.3585 414.716Z" fill="#D2DFE6"/>
<path opacity="0.5" d="M205 803C219 821 221 861 223 883C225 905.001 192.4 895.4 182 889C169 881 129 820 110 803C90.9998 786.001 78.9998 757 101 732C123 707 144 742 152 746C160 750 191 785 205 803Z" fill="#D2DFE6"/>
<path opacity="0.5" d="M285.999 67C284.399 76.6 274.999 93 293.999 97C313 101 339 54 339 54L313 67V38C309 47.6667 300.8 64.4 300 54C299.2 43.6 290.333 39 285.999 38C286.666 43.6667 287.599 57.4 285.999 67Z" fill="#D2DFE6"/>
<path opacity="0.5" d="M176 68.0002C188.8 81.6002 162.667 115 148 130C138 121 113.2 99.8 94.0004 87C70.0004 71 79.0004 52 89.0004 57.0002C99.0004 62.0004 106 57.0002 118 68.0002C127.6 76.8002 142 103 148 115C144.667 102.667 138 73.8002 138 57.0002C138 36.0002 160 51.0002 176 68.0002Z" fill="#D2DFE6"/>
<path opacity="0.5" d="M83.9996 290C111 316 110 199 101 179C91.9993 159 50 179 34 179C14 179 14.9996 214 12.9996 234C10.9996 254 56.9996 264 83.9996 290Z" fill="#D2DFE6"/>
<path opacity="0.5" d="M295 230C303.667 220.667 326 204.8 346 216C371 230 389 272 390 283C391 294 402 368 379 371C363.961 372.962 347.211 372.358 332.666 371.705C326.783 374.816 322.95 373.867 319.756 371.154C316.998 371.06 314.399 371 312 371C295 371 291 377 277 383C263 389 249 370 232 352C215 334 180 321 178 302C176 283 153 244 172 230C191 216 212 209 226 216C240 223 276 246 259 260C232 302 223 304 253 328C283 352 270.001 352 295 352C309.153 352 313.05 365.461 319.756 371.154C323.762 371.291 328.105 371.5 332.666 371.705C336.245 369.812 340.584 366.416 346 361C379 328 387.001 321 379 302C371 283 380 234 346 247C312 260 297 273 287 260C279 249.6 289 235.667 295 230Z" fill="#D2DFE6"/>
<path d="M67.0003 317.5C64.1369 319.549 58.6774 326.879 35.3623 346.689C12.0473 366.5 -4.00046 372 2.22999 379.883C8.46043 387.766 14.5015 391.904 27.9996 397.094C41.4978 402.284 41.4977 386.03 32.9083 386.03C24.3188 386.03 24.5357 398.467 23.0917 405.7C21.8645 411.847 14.5015 419.223 14.5015 424.141M14.5015 424.141C14.5015 430.288 15.728 432.747 27.9996 433.976M14.5015 424.141C16.9559 420.453 23.0916 413.076 32.9083 416.765C39.4081 419.207 47.2251 431.107 50.0885 437.664M27.9996 433.976C36.7484 434.853 46.8161 436.845 50.0885 437.664M27.9996 433.976C20.6373 440.123 12.8232 444.462 14.5015 451.188C15.2561 454.211 17.4847 456.254 20.6373 457.029M50.0885 437.664C47.634 442.582 40.4826 450.568 35.3623 453.646C29.7417 457.025 24.497 457.977 20.6373 457.029M20.6373 457.029C21.8645 459.18 24.0734 464.711 23.0917 469.628C21.8645 475.775 12.0472 488.069 12.0472 492.987C12.0472 507.444 22.0519 511.878 39.0447 512.549M286.931 409.388C284.886 414.306 278.096 423.649 272.205 431.517C264.842 441.352 182.623 492.987 169.124 502.822C161.967 508.036 137.218 507.739 90.5855 510.198C70.066 511.28 52.3978 513.076 39.0447 512.549M39.0447 512.549C66.4513 521.6 118.81 536.015 147.035 569.209C166.663 592.293 177.363 612.903 183.38 631.908M193.667 714.277C190.647 688.564 192.997 662.288 183.38 631.908M183.38 631.908C153.675 634.367 90.5855 639.284 63.5879 674.937C16.1095 737.635 46.4077 822.463 54.9978 863.033C61.8699 895.489 72.5871 978.186 77.0867 1015.48M171.578 736.406C171.578 743.782 173.296 760.502 180.168 768.37C188.758 778.205 201.03 785.582 207.166 789.27M104.084 806.481C118.401 820.005 144.405 838.445 147.035 869.18C150.716 912.209 144.581 951.549 150.716 983.514C155.625 1009.08 168.715 1014.66 176.487 1029M360.561 631.908C345.017 624.532 309.511 612.975 291.84 625.761C269.751 641.743 237.845 658.955 232.936 780.664C229.009 878.032 226.391 980.235 225.573 1019.17M409.647 823.693C409.238 841.314 409.048 896.331 407.193 923.273C404.739 958.926 390.422 991.3 387.558 1015.48M312.702 451.188C315.156 479.464 323.501 540.933 337.245 560.603C354.425 585.191 416.114 616.285 445.235 647.89C474.687 679.854 529.909 780.664 545.862 844.592C561.251 906.259 555.679 984.743 555.679 1015.48" stroke="#868C96"/>
<path d="M294.78 122.429C293.133 118.282 286.604 112.708 273.665 123.596C268.28 128.127 263.89 132.411 260.456 136.111M294.78 122.429C294.216 118.222 295.615 107.254 305.725 97.0445C315.835 86.8347 332.669 95.2291 339.258 96.4951M294.78 122.429C299.254 115.117 303.771 99.3697 286.05 94.8716M251.546 147.316C253.865 149.905 261.676 154.712 274.365 153.228M251.546 147.316C256.135 145.867 268.851 141.012 283.006 133.187C297.162 125.362 298.266 130.279 297.048 133.715C299.31 133.373 304.813 130.417 308.73 121.332C312.647 112.247 313.434 110.421 313.338 110.644C315.661 111.385 322.068 111.726 329.108 107.164C336.149 102.601 339.638 97.4522 339.258 96.4951M251.546 147.316C252.703 145.348 255.638 141.304 260.456 136.111M274.365 153.228C287.055 151.744 295.266 148.269 297.785 146.716C297.842 149.648 298.837 158.887 304.764 166.382C308.099 170.6 314.019 171.577 324.859 173.097M274.365 153.228C272.008 153.793 268.585 158.177 273.754 171.194C278.923 184.211 288.95 197.851 293.317 203.043M324.859 173.097C335.699 174.617 338.415 175.194 338.527 169.896C338.654 163.9 338.165 160.795 337.118 158.454M324.859 173.097C324.665 174.466 322.774 178.853 316.76 185.445C310.747 192.038 298.626 199.924 293.317 203.043M339.258 96.4951C339.767 98.9135 340.318 102.683 340.528 106.953M312.403 145.908C312.971 148.268 314.582 154.461 316.48 160.355M286.05 94.8716C268.329 90.3736 254.145 93.4834 249.269 95.6006M286.05 94.8716C281.137 91.5567 282.209 81.716 283.955 69.3927C285.352 59.5341 281.958 50.4294 280.08 49.8811C280.944 47.8771 283.608 44.2738 287.349 45.8929C291.091 47.5119 294.598 51.936 295.884 53.9457M286.05 94.8716C288.535 96.5482 291.577 97.402 293.966 98.5757M249.269 95.6006C248.024 96.6475 246.886 101.862 252.285 114.345C257.685 126.827 259.982 134.057 260.456 136.111M249.269 95.6006C250.133 93.5965 267.91 103.113 278.129 113.242M293.317 203.043C293.486 198.361 294.412 186.713 296.763 177.584C299.114 168.455 297.063 163.711 295.745 162.479M337.118 158.454C335.971 155.889 334.153 154.24 331.738 150.708C323.997 139.389 312.449 139.059 309.074 138.919C313.816 140.179 325.464 140.622 334.118 132.318C339.948 126.724 340.964 115.771 340.528 106.953M337.118 158.454C337.934 156.869 341.333 153.275 348.406 151.58C355.479 149.885 362.896 143.715 365.72 140.842M365.72 140.842C362.893 137.901 356.228 130.314 352.192 123.494C348.156 116.675 342.735 109.625 340.528 106.953M365.72 140.842C364.384 140.264 360.145 139.063 353.879 138.888C347.612 138.713 346.591 136.791 346.864 135.852M318.83 66.6499L328.19 67.9257C326.21 70.3718 324.346 78.3109 319.365 84.7159C313.138 92.7222 306.393 97.3336 303.525 98.4703C302.107 99.0321 296.301 99.7228 293.966 98.5757M318.83 66.6499L329.878 60.3334C330.742 58.3293 329.43 55.3045 323.583 55.6277C317.735 55.9509 315.89 56.9224 315.41 58.0357C314.997 57.4608 314.761 52.92 313.665 47.3727C312.569 41.8253 308.05 37.4126 308.05 37.4126C308.05 37.4126 303.315 40.1197 300.204 43.9255C297.093 47.7314 296.412 52.7211 295.884 53.9457M318.83 66.6499C317.874 67.0288 314.872 68.1077 310.513 69.392C306.154 70.6763 302.349 74.8426 300.992 76.7652M295.884 53.9457C295.498 55.3641 297.64 58.4312 300.492 65.0553C303.343 71.6794 301.28 76.0972 300.992 76.7652M300.992 76.7652L297.535 84.7815L293.966 98.5757M329.732 83.6537C330.836 81.0931 332.473 75.0903 330.188 71.5648C327.332 67.158 331.468 53.8876 335.932 43.5334C339.504 35.2501 349.467 28.3849 352.256 26.8178C354.161 29.7557 357.467 38.2675 355.457 48.8121C353.448 59.3566 348.03 68.4895 345.572 71.7379M329.732 83.6537L318.541 90.3043M329.732 83.6537C333.589 80.7001 339.774 76.0176 345.572 71.7379M318.541 90.3043C323.521 91.931 335.928 94.6578 345.715 92.5518C355.502 90.4458 372.073 93.3161 378.649 81.4388C381.013 77.1688 381.875 69.3599 381.875 69.3599M318.541 90.3043C327.607 87.3578 340.884 81.1234 354.118 75.4359C367.352 69.7484 381.875 69.3599 381.875 69.3599M381.875 69.3599C381.875 69.3599 367.798 60.0563 358.676 62.4911C352.624 64.1065 351.042 67.7009 345.572 71.7379" stroke="#868C96"/>
<path d="M166.587 183.6C160.413 182.912 149.29 187.308 154.183 210.393C156.219 219.999 158.604 228.218 160.899 234.876M166.587 183.6C161.049 181.538 148.496 172.626 142.581 153.473C136.667 134.32 158.009 119.07 163.881 111.777M166.587 183.6C160.538 173.294 144.157 157.405 127.019 176.302M168.821 253.202C173.521 252.04 184.543 245.562 191.036 228.947M168.821 253.202C170.049 246.596 172.419 227.74 172.085 205.163C171.75 182.586 178.512 184.447 181.935 188.2C182.997 185.187 182.972 176.467 174.381 165.685C165.789 154.903 164.063 152.736 164.273 153C166.706 150.622 171.323 142.949 170.334 131.28C169.344 119.61 165.306 111.936 163.881 111.777M168.821 253.202C167.163 250.487 164.119 244.218 160.899 234.876M191.036 228.947C197.529 212.332 198.642 199.934 198.386 195.812C202.024 197.662 214.024 202.489 227.114 200.096C234.479 198.749 239.559 192.091 248.529 179.725M191.036 228.947C190.185 232.224 193.327 239.317 212.702 241.475C232.077 243.634 255.4 240.212 264.64 238.231M248.529 179.725C257.5 167.359 259.988 164.389 253.555 160.779C246.273 156.693 242.14 155.261 238.578 155.017M248.529 179.725C250.084 180.862 254.232 186.068 258.388 197.801C262.544 209.534 264.288 229.643 264.64 238.231M163.881 111.777C167.185 112.735 172.176 114.526 177.559 117.064M206.973 177.263C210.243 178.109 218.905 180.181 227.388 181.704M127.019 176.302C109.882 195.199 104.407 214.721 103.811 222.119M127.019 176.302C119.728 180.185 108.344 172.415 94.3531 162.187C83.16 154.005 69.7532 152.222 67.8493 154.178C65.9542 151.799 63.274 146.155 67.7143 142.604C72.1547 139.053 79.8869 137.628 83.1979 137.36M127.019 176.302C130.707 174.338 133.749 171.147 136.756 168.971M103.811 222.119C104.282 224.339 109.94 229.16 128.81 230.684C147.679 232.208 158.065 234.114 160.899 234.876M103.811 222.119C101.916 219.741 125.254 204.063 144.392 198.104M264.64 238.231C258.999 234.954 245.301 226.179 235.629 217.299C225.957 208.419 218.786 207.837 216.409 208.656M238.578 155.017C234.676 154.751 231.459 155.912 225.539 156.574C206.564 158.698 198.591 172.717 196.208 176.786C200.862 171.766 209.039 157.698 204.512 141.589C201.461 130.736 188.675 122.307 177.559 117.064M238.578 155.017C237.166 152.974 234.98 146.428 237.533 136.599C240.086 126.769 237.368 113.583 235.69 108.219M235.69 108.219C230.225 109.777 216.539 113.02 205.518 113.526C194.497 114.032 182.287 116.096 177.559 117.064M235.69 108.219C234.104 109.487 229.852 113.926 225.53 121.535C221.209 129.145 218.179 129.145 217.205 128.193M113.838 117.4L121.539 106.699C123.246 110.742 131.775 118.242 136.378 128.58C142.131 141.502 143.374 152.839 142.891 157.12C142.652 159.235 139.695 166.845 136.756 168.971M113.838 117.4L113.32 99.6426C111.425 97.2641 106.85 96.8991 103.415 104.319C99.9804 111.738 99.964 114.65 101.017 115.972C100.04 116.104 94.3089 113.418 86.7771 111.134C79.2454 108.85 70.8644 111.529 70.8644 111.529C70.8644 111.529 71.0865 119.139 73.7222 125.468C76.3579 131.797 82.0398 135.907 83.1979 137.36M113.838 117.4C113.677 118.827 113.035 123.235 111.756 129.449C110.477 135.664 113.101 143.085 114.572 146.018M83.1979 137.36C84.6872 138.765 89.8576 138.135 99.8623 138.961C109.867 139.786 113.941 145.225 114.572 146.018M114.572 146.018L122.153 155.532L136.756 168.971M141.867 115.104C139.446 112.065 133.146 106.114 127.318 106.62C120.034 107.254 106.445 93.4585 96.6538 81.1699C88.8206 71.3391 86.9175 54.5593 86.8209 50.0935C91.6771 49.6713 104.298 51.1737 115.932 60.561C127.566 69.9484 135.233 82.6116 137.612 87.7698M141.867 115.104L142.701 133.258M141.867 115.104C140.767 108.414 139.069 97.7223 137.612 87.7698M142.701 133.258C147.963 128.185 159.442 114.678 163.269 101.234C167.096 87.7897 181.481 69.2432 171.203 53.3536C167.508 47.641 158.482 41.4611 158.482 41.4611M142.701 133.258C145.024 120.152 146.067 99.6994 147.754 79.6591C149.441 59.6188 158.482 41.4611 158.482 41.4611M158.482 41.4611C158.482 41.4611 137.83 52.717 134.842 65.5575C132.86 74.0768 136.238 78.3819 137.612 87.7698" stroke="#868C96"/>
<path d="M285.971 281.219C282.699 273.023 274.19 259.09 266.337 268.925C256.519 281.219 252.838 315.642 274.927 314.412C297.016 313.183 328.922 287.366 322.786 268.925C316.65 250.484 312.969 257.86 285.971 252.943C258.974 248.025 246.702 224.667 236.885 246.796C227.068 268.925 263.882 373.423 309.287 343.918C354.692 314.412 379.235 261.548 322.786 238.19C266.337 214.832 214.796 190.243 206.205 229.584C197.615 268.925 250.383 352.523 219.704 362.358C189.025 372.194 165.709 373.423 173.072 343.918C180.435 314.412 170.618 315.642 149.756 281.219C128.894 246.796 138.712 196.391 179.208 186.556C219.704 176.72 240.566 226.602 274.927 229.584C309.287 232.567 322.786 200.079 339.966 207.455C357.146 214.832 401.324 270.154 397.643 292.283C393.961 314.412 393.961 336.541 389.052 362.358C384.144 388.176 370.645 391.864 339.966 377.111C309.287 362.358 327.695 417.681 285.971 409.075C244.247 400.47 254.065 388.176 250.383 362.358C246.702 336.541 185.344 346.376 179.208 292.283C173.072 238.19 195.161 186.556 163.255 186.556C131.349 186.556 131.349 236.961 109.26 252.943C87.1708 268.925 60.1733 298.43 65.0819 252.943C69.9906 207.455 85.9436 160.738 109.26 177.95M109.26 177.95C132.576 195.161 105.578 212.972 100.67 238.19C95.7609 263.408 100.67 315.641 65.0819 292.283C29.4943 268.925 -28.1823 228.355 18.4498 207.455C65.0819 186.556 93.3066 176.721 87.1708 207.455C81.035 238.19 52.8103 260.249 45.4473 229.584C38.0844 198.919 65.0819 185.326 65.0819 207.455C65.0819 229.584 44.2202 257.86 18.4498 229.584C-7.32056 201.308 38.0844 147.215 73.672 155.821C109.26 164.427 131.349 174.79 109.26 177.95Z" stroke="#868C96"/>
</svg>

<svg width="471" height="1030" fill="none" xmlns="http://www.w3.org/2000/svg"><path opacity=".5" d="M12.358 414.716c1.92-11.925 32.835 11.821 48.053 25.185-7.886 10.893-26.455 31.255-37.646 25.561-11.19-5.694-1.36-17.553 4.954-22.77-5.92-4.356-17.28-16.05-15.36-27.976zM205 803c14 18 16 58 18 80 2 22.001-30.6 12.4-41 6-13-8-53-69-72-86-19-16.999-31-46-9-71s43 10 51 14 39 39 53 57zM285.999 67c-1.6 9.6-11 26 8 30C313 101 339 54 339 54l-26 13V38c-4 9.667-12.2 26.4-13 16-.8-10.4-9.667-15-14.001-16 .667 5.667 1.6 19.4 0 29zM176 68c12.8 13.6-13.333 47-28 62-10-9-34.8-30.2-54-43-24-16-15-35-5-30s17 0 29 11c9.6 8.8 24 35 30 47-3.333-12.333-10-41.2-10-58 0-21 22-6 38 11zM84 290c27 26 26-91 17-111s-51 0-67 0c-20 0-19 35-21 55s44 30 71 56zM295 230c8.667-9.333 31-25.2 51-14 25 14 43 56 44 67s12 85-11 88c-15.039 1.962-31.789 1.358-46.334.705-5.883 3.111-9.716 2.162-12.91-.551A230.693 230.693 0 0 0 312 371c-17 0-21 6-35 12s-28-13-45-31-52-31-54-50-25-58-6-72 40-21 54-14 50 30 33 44c-27 42-36 44-6 68s17.001 24 42 24c14.153 0 18.05 13.461 24.756 19.154 4.006.137 8.349.346 12.91.551 3.579-1.893 7.918-5.289 13.334-10.705 33-33 41.001-40 33-59-8-19 1-68-33-55s-49 26-59 13c-8-10.4 2-24.333 8-30z" fill="#D2DFE6"/><path d="M67 317.5c-2.863 2.049-8.323 9.379-31.638 29.189C12.047 366.5-4 372 2.23 379.883c6.23 7.883 12.271 12.021 25.77 17.211 13.498 5.19 13.498-11.064 4.908-11.064s-8.372 12.437-9.816 19.67c-1.227 6.147-8.59 13.523-8.59 18.441m0 0c0 6.147 1.226 8.606 13.498 9.835m-13.498-9.835c2.454-3.688 8.59-11.065 18.406-7.376 6.5 2.442 14.317 14.342 17.18 20.899M28 433.976c8.748.877 18.816 2.869 22.089 3.688m-22.09-3.688c-7.362 6.147-15.176 10.486-13.497 17.212.754 3.023 2.983 5.066 6.135 5.841m29.452-19.365c-2.455 4.918-9.606 12.904-14.727 15.982-5.62 3.379-10.865 4.331-14.725 3.383m0 0c1.227 2.151 3.436 7.682 2.455 12.599-1.227 6.147-11.045 18.441-11.045 23.359 0 14.457 10.005 18.891 26.998 19.562M286.93 409.388c-2.045 4.918-8.835 14.261-14.726 22.129-7.363 9.835-89.582 61.47-103.081 71.305-7.157 5.214-31.906 4.917-78.538 7.376-20.52 1.082-38.188 2.878-51.541 2.351m0 0c27.406 9.051 79.765 23.466 107.99 56.66 19.628 23.084 30.328 43.694 36.345 62.699m10.287 82.369c-3.02-25.713-.67-51.989-10.287-82.369m0 0c-29.705 2.459-92.794 7.376-119.792 43.029-47.479 62.698-17.18 147.526-8.59 188.096 6.872 32.456 17.59 115.153 22.089 152.447m94.491-279.074c0 7.376 1.718 24.096 8.59 31.964 8.59 9.835 20.862 17.212 26.998 20.9m-103.082 17.211c14.317 13.524 40.321 31.964 42.951 62.699 3.681 43.029-2.454 82.369 3.681 114.334 4.909 25.566 17.999 31.146 25.771 45.486m184.074-397.092c-15.544-7.376-51.05-18.933-68.721-6.147-22.089 15.982-53.995 33.194-58.904 154.903-3.927 97.368-6.545 199.571-7.363 238.506m184.074-195.477c-.409 17.621-.599 72.638-2.454 99.58-2.454 35.653-16.771 68.027-19.635 92.207m-74.856-564.292c2.454 28.276 10.799 89.745 24.543 109.415 17.18 24.588 78.869 55.682 107.99 87.287 29.452 31.964 84.674 132.774 100.627 196.702 15.389 61.667 9.817 140.151 9.817 170.888M294.78 122.429c-1.647-4.147-8.176-9.721-21.115 1.167-5.385 4.531-9.775 8.815-13.209 12.515m34.324-13.682c-.564-4.207.835-15.175 10.945-25.385s26.944-1.815 33.533-.549M294.78 122.43c4.474-7.312 8.991-23.06-8.73-27.557m-34.504 52.444c2.319 2.589 10.13 7.396 22.819 5.912m-22.819-5.912c4.589-1.449 17.305-6.304 31.46-14.129 14.156-7.825 15.26-2.908 14.042.528 2.262-.342 7.765-3.298 11.682-12.383l4.608-10.688c2.323.741 8.73 1.082 15.77-3.48 7.041-4.563 10.53-9.712 10.15-10.669m-87.712 50.821c1.157-1.968 4.092-6.012 8.91-11.205m13.909 17.117c12.69-1.484 20.901-4.959 23.42-6.512.057 2.932 1.052 12.171 6.979 19.666 3.335 4.218 9.255 5.195 20.095 6.715m-50.494-19.869c-2.357.565-5.78 4.949-.611 17.966 5.169 13.017 15.196 26.657 19.563 31.849m31.542-29.946c10.84 1.52 13.556 2.097 13.668-3.201.127-5.996-.362-9.101-1.409-11.442m-12.259 14.643c-.194 1.369-2.085 5.756-8.099 12.348-6.013 6.593-18.134 14.479-23.443 17.598m45.941-106.548c.509 2.418 1.06 6.188 1.27 10.458m-28.125 38.955c.568 2.36 2.179 8.553 4.077 14.447m-30.43-65.483c-17.721-4.498-31.905-1.389-36.781.729m36.781-.73c-4.913-3.314-3.841-13.155-2.095-25.478 1.397-9.859-1.997-18.964-3.875-19.512.864-2.004 3.528-5.607 7.269-3.988 3.742 1.619 7.249 6.043 8.535 8.053m-9.834 40.926c2.485 1.676 5.527 2.53 7.916 3.704M249.269 95.6c-1.245 1.046-2.383 6.261 3.016 18.744 5.4 12.482 7.697 19.712 8.171 21.766m-11.187-40.51c.864-2.004 18.641 7.512 28.86 17.641m15.188 89.801c.169-4.682 1.095-16.33 3.446-25.459 2.351-9.129.3-13.873-1.018-15.105m41.373-4.025c-1.147-2.565-2.965-4.214-5.38-7.746-7.741-11.319-19.289-11.649-22.664-11.789 4.742 1.26 16.39 1.703 25.044-6.601 5.83-5.594 6.846-16.547 6.41-25.365m-3.41 51.501c.816-1.585 4.215-5.179 11.288-6.874 7.073-1.695 14.49-7.865 17.314-10.738m0 0c-2.827-2.941-9.492-10.528-13.528-17.348-4.036-6.819-9.457-13.869-11.664-16.541m25.192 33.889c-1.336-.578-5.575-1.779-11.841-1.954-6.267-.175-7.288-2.097-7.015-3.036M318.83 66.65l9.36 1.276c-1.98 2.446-3.844 10.385-8.825 16.79-6.227 8.006-12.972 12.618-15.84 13.754-1.418.562-7.224 1.253-9.559.106M318.83 66.65l11.048-6.317c.864-2.004-.448-5.029-6.295-4.705-5.848.323-7.693 1.294-8.173 2.408-.413-.575-.649-5.116-1.745-10.663-1.096-5.548-5.615-9.96-5.615-9.96s-4.735 2.707-7.846 6.513c-3.111 3.805-3.792 8.795-4.32 10.02M318.83 66.65c-.956.379-3.958 1.458-8.317 2.742s-8.164 5.45-9.521 7.373m-5.108-22.82c-.386 1.42 1.756 4.486 4.608 11.11 2.851 6.624.788 11.042.5 11.71m0 0-3.457 8.016-3.569 13.795m35.766-14.922c1.104-2.56 2.741-8.564.456-12.09-2.856-4.406 1.28-17.676 5.744-28.03 3.572-8.284 13.535-15.15 16.324-16.716 1.905 2.938 5.211 11.45 3.201 21.994-2.009 10.545-7.427 19.678-9.885 22.926m-15.84 11.916-11.191 6.65m11.191-6.65a1213.036 1213.036 0 0 1 15.84-11.916m-27.031 18.566c4.98 1.627 17.387 4.354 27.174 2.248 9.787-2.106 26.358.764 32.934-11.113 2.364-4.27 3.226-12.08 3.226-12.08m-63.334 20.945c9.066-2.946 22.343-9.18 35.577-14.868 13.234-5.688 27.757-6.076 27.757-6.076m0 0s-14.077-9.304-23.199-6.869c-6.052 1.615-7.634 5.21-13.104 9.247M166.587 183.6c-6.174-.688-17.297 3.708-12.404 26.793 2.036 9.606 4.421 17.825 6.716 24.483m5.688-51.276c-5.538-2.062-18.091-10.974-24.006-30.127-5.914-19.153 15.428-34.403 21.3-41.696m2.706 71.823c-6.049-10.306-22.43-26.195-39.568-7.298m41.802 76.9c4.7-1.162 15.722-7.64 22.215-24.255m-22.215 24.255c1.228-6.606 3.598-25.462 3.264-48.039-.335-22.577 6.427-20.716 9.85-16.963 1.062-3.013 1.037-11.733-7.554-22.515L164.273 153c2.433-2.378 7.05-10.051 6.061-21.72-.99-11.67-5.028-19.344-6.453-19.503m4.94 141.425c-1.658-2.715-4.702-8.984-7.922-18.326m30.137-5.929c6.493-16.615 7.606-29.013 7.35-33.135 3.638 1.85 15.638 6.677 28.728 4.284 7.365-1.347 12.445-8.005 21.415-20.371m-57.493 49.222c-.851 3.277 2.291 10.37 21.666 12.528 19.375 2.159 42.698-1.263 51.938-3.244m-16.111-58.506c8.971-12.366 11.459-15.336 5.026-18.946-7.282-4.086-11.415-5.518-14.977-5.762m9.951 24.708c1.555 1.137 5.703 6.343 9.859 18.076s5.9 31.842 6.252 40.43M163.881 111.777c3.304.958 8.295 2.749 13.678 5.287m29.414 60.199c3.27.846 11.932 2.918 20.415 4.441m-100.369-5.402c-17.137 18.897-22.612 38.419-23.208 45.817m23.208-45.817c-7.291 3.883-18.675-3.887-32.666-14.115-11.193-8.182-24.6-9.965-26.504-8.009-1.895-2.379-4.575-8.023-.135-11.574s12.173-4.976 15.484-5.244m43.821 38.942c3.688-1.964 6.73-5.155 9.737-7.331m-32.945 53.148c.471 2.22 6.129 7.041 24.999 8.565 18.869 1.524 29.255 3.43 32.089 4.192m-57.088-12.757c-1.895-2.378 21.443-18.056 40.581-24.015m120.248 40.127c-5.641-3.277-19.339-12.052-29.011-20.932-9.672-8.88-16.843-9.462-19.22-8.643m22.169-53.639c-3.902-.266-7.119.895-13.039 1.557-18.975 2.124-26.948 16.143-29.331 20.212 4.654-5.02 12.831-19.088 8.304-35.197-3.051-10.853-15.837-19.282-26.953-24.525m61.019 37.953c-1.412-2.043-3.598-8.589-1.045-18.418 2.553-9.83-.165-23.016-1.843-28.38m0 0c-5.465 1.558-19.151 4.801-30.172 5.307-11.021.506-23.231 2.57-27.959 3.538m58.131-8.845c-1.586 1.268-5.838 5.707-10.16 13.316-4.321 7.61-7.351 7.61-8.325 6.658M113.838 117.4l7.701-10.701c1.707 4.043 10.236 11.543 14.839 21.881 5.753 12.922 6.996 24.259 6.513 28.54-.239 2.115-3.196 9.725-6.135 11.851M113.838 117.4l-.518-17.757c-1.895-2.379-6.47-2.744-9.905 4.676-3.435 7.419-3.451 10.331-2.398 11.653-.977.132-6.708-2.554-14.24-4.838-7.532-2.284-15.913.395-15.913.395s.222 7.61 2.858 13.939 8.318 10.439 9.476 11.892m30.64-19.96c-.161 1.427-.803 5.835-2.082 12.049-1.279 6.215 1.345 13.636 2.816 16.569m-31.374-8.658c1.49 1.405 6.66.775 16.664 1.601 10.005.825 14.079 6.264 14.71 7.057m0 0 7.581 9.514 14.603 13.439m5.111-53.867c-2.421-3.039-8.721-8.99-14.549-8.484-7.284.634-20.873-13.162-30.664-25.45-7.833-9.83-9.736-26.61-9.833-31.077 4.856-.422 17.477 1.08 29.111 10.468 11.634 9.387 19.301 22.05 21.68 27.209m4.255 27.334.834 18.154m-.834-18.154c-1.1-6.69-2.798-17.382-4.255-27.334m5.089 45.488c5.262-5.073 16.741-18.58 20.568-32.024 3.827-13.444 18.212-31.99 7.934-47.88-3.695-5.713-12.721-11.893-12.721-11.893m-15.781 91.797c2.323-13.106 3.366-33.559 5.053-53.599 1.687-20.04 10.728-38.198 10.728-38.198m0 0s-20.652 11.256-23.64 24.097c-1.982 8.519 1.396 12.824 2.77 22.212" stroke="#868C96"/><path d="M285.971 281.219c-3.272-8.196-11.781-22.129-19.634-12.294-9.818 12.294-13.499 46.717 8.59 45.487 22.089-1.229 53.995-27.046 47.859-45.487-6.136-18.441-9.817-11.065-36.815-15.982-26.997-4.918-39.269-28.276-49.086-6.147-9.817 22.129 26.997 126.627 72.402 97.122 45.405-29.506 69.948-82.37 13.499-105.728-56.449-23.358-107.99-47.947-116.581-8.606-8.59 39.341 44.178 122.939 13.499 132.774-30.679 9.836-53.995 11.065-46.632-18.44 7.363-29.506-2.454-28.276-23.316-62.699s-11.044-84.828 29.452-94.663c40.496-9.836 61.358 40.046 95.719 43.028 34.36 2.983 47.859-29.505 65.039-22.129 17.18 7.377 61.358 62.699 57.677 84.828-3.682 22.129-3.682 44.258-8.591 70.075-4.908 25.818-18.407 29.506-49.086 14.753s-12.271 40.57-53.995 31.964c-41.724-8.605-31.906-20.899-35.588-46.717-3.681-25.817-65.039-15.982-71.175-70.075-6.136-54.093 15.953-105.727-15.953-105.727s-31.906 50.405-53.995 66.387c-22.09 15.982-49.087 45.487-44.178 0 4.909-45.488 20.862-92.205 44.178-74.993m0 0c23.316 17.211-3.682 35.022-8.59 60.24-4.91 25.218 0 77.451-35.588 54.093-35.588-23.358-93.264-63.928-46.632-84.828 46.632-20.899 74.857-30.734 68.72 0-6.135 30.735-34.36 52.794-41.723 22.129-7.363-30.665 19.635-44.258 19.635-22.129S44.22 257.86 18.45 229.584s19.634-82.369 55.222-73.763c35.588 8.606 57.677 18.969 35.588 22.129z" stroke="#868C96"/></svg>
